img/main/payment-error.svg

<svg width="410" height="241" viewBox="0 0 410 241" fill="none" xmlns="http://www.w3.org/2000/svg">
<path d="M285.168 29.7557C294.546 32.6533 298.746 26.0189 300.332 24.0955C296.483 18.4902 304.406 10.7567 296.353 4.3721C286.604 1.84423 278.902 11.3662 278.386 19.2995C277.815 27.8323 285.168 29.7557 285.168 29.7557Z" fill="#1E0C1C"/>
<path d="M32.2951 223.697C32.4753 230.492 35.4681 231.141 40.8032 226.655L101.496 144.524C146.309 186.014 193.965 192.484 235.27 181.688C235.104 181.348 234.954 181.008 234.794 180.689C232.212 175.193 224.96 173.24 223.393 157.009C198.369 149.135 138.442 92.8426 100.535 109.049C48.3755 131.345 32.2951 223.697 32.2951 223.697Z" fill="#0C1F50"/>
<path d="M32.2948 223.697L16.5648 236.456C16.1383 236.826 15.8477 237.328 15.7391 237.882C15.6304 238.436 15.7099 239.01 15.9648 239.514C16.2197 240.018 16.6356 240.422 17.1467 240.664C17.6579 240.905 18.235 240.97 18.7869 240.847L40.5878 237.051C40.9465 236.972 41.2862 236.824 41.5873 236.614C41.8885 236.404 42.1452 236.137 42.3428 235.828C42.5403 235.519 42.6749 235.174 42.7387 234.813C42.8026 234.452 42.7945 234.082 42.7148 233.724L41.1383 226.585L32.2948 223.697Z" fill="#1E0C1C"/>
<path d="M285.172 29.7505C285.613 25.3443 287.925 21.8572 289.506 19.9288L309.891 11.9355L326.582 23.296L329.585 36.285L329.82 55.8885H329.86L337.042 63.2623C333.979 75.1872 326.006 79.4736 313.234 76.2863L312.579 73.3438L311.077 66.5595C293.28 74.4729 292.459 63.4571 289.972 60.5396C289.771 60.2778 289.506 60.0729 289.201 59.9451C288.328 59.6358 287.594 59.0267 287.129 58.2265C286.128 56.453 286.569 53.8252 288.08 51.4273C290.227 48.0251 286.869 42.7546 285.322 33.7821C285.09 32.4512 285.039 31.095 285.172 29.7505Z" fill="#BE654F"/>
<path d="M289.507 19.9289C290.211 20.9312 291.053 21.8293 292.009 22.5967C292.71 23.1812 293.39 23.7057 294.041 24.1753C301.153 29.3959 305.387 28.8364 305.387 28.8364C306.092 29.4852 306.76 30.1723 307.389 30.8947C309.731 33.5474 313.309 38.5332 313.61 44.3833C313.545 42.8846 313.269 33.3926 316.908 33.6773C319.41 33.8872 321.462 39.0178 320.706 42.8946C320.609 43.5819 320.374 44.2424 320.014 44.8366C319.655 45.4307 319.179 45.946 318.614 46.3516C317.939 46.7966 317.163 47.0678 316.357 47.141C316.778 47.66 317.266 48.1204 317.809 48.5098C318.072 48.7013 318.351 48.8685 318.644 49.0094C319.055 49.2334 319.517 49.3453 319.984 49.3339C320.452 49.3225 320.908 49.1882 321.307 48.9445L329.85 55.8986H329.89C330.501 55.5989 337.738 51.832 340.05 41.1311C342.462 29.9705 335.666 17.6009 329.195 16.7166C329.195 16.7166 328.974 2.81833 315.041 0.295454C309.195 -0.758657 301.893 1.09978 296.363 4.407C289.742 8.30871 285.658 14.3286 289.507 19.9289Z" fill="#3F1F3C"/>
<path d="M19.6375 226.245L1.32495 236.302C0.828236 236.572 0.436047 237 0.210478 237.518C-0.0150909 238.036 -0.061142 238.614 0.0795841 239.161C0.220312 239.708 0.539806 240.192 0.987467 240.538C1.43513 240.883 1.98537 241.002 2.55113 241H24.8325C25.1996 241 25.5632 240.995 25.9024 240.855C26.2415 240.714 26.5496 240.509 26.809 240.249C27.0683 239.99 27.2739 239.682 27.414 239.343C27.554 239.004 27.6258 238.641 27.6251 238.275V230.961C27.7402 226.035 25.2229 224.287 19.6375 226.245Z" fill="#3F1F3C"/>
<path d="M19.6378 226.245L27.3001 230.961L104.304 163.818C105.882 166.086 107.482 168.291 109.103 170.432C143.191 215.439 186.177 230.467 226.911 228.883C226.821 228.518 226.746 228.154 226.666 227.784C223.338 211.837 242.681 197.2 242.536 184.565C242.431 175.698 240.584 167.35 241.25 160.685C241.395 159.237 223.233 158.317 223.393 156.989C200.656 143.915 134.883 108.285 104.889 115.524C68.3094 124.361 19.6378 226.245 19.6378 226.245Z" fill="#162F71"/>
<path d="M150.809 136.801L198.514 167.275C198.514 167.275 211.922 180.264 221.932 184.551C221.867 179.37 221.997 174.524 222.242 170.063C214.787 165.931 207.626 161.294 200.807 156.184L197.443 152.068L196.863 158.777L150.809 136.801Z" fill="#0E245C"/>
<path d="M224.068 212.841C233.457 214.365 246.334 215.189 263.856 214.9C277.759 214.665 289.33 212.557 298.945 209.174C309.171 203.909 318.843 197.635 327.817 190.445C341.37 179.529 351.455 167.58 356.535 156.474C381.319 102.29 337.016 63.2524 337.016 63.2524L313.233 76.2515C293.524 91.7984 286.242 116.927 271.193 133.998C251.885 155.914 223.382 156.978 223.382 156.978C223.317 157.508 223.252 158.048 223.197 158.592C221.223 176.641 221.515 194.865 224.068 212.841Z" fill="url(#paint0_linear)"/>
<path d="M93.3936 216.918C93.441 217.204 93.5028 217.487 93.5788 217.767C93.8916 218.974 94.2965 220.155 94.7899 221.299C99.9099 233.409 112.061 241 125.229 241H347.813C351.478 241 355.118 240.463 358.588 239.289C437.864 212.272 407.94 136.136 383.842 118.246C383.557 118.031 383.271 117.836 382.986 117.642C382.927 117.595 382.865 117.552 382.801 117.512C365.75 106.076 355.955 126.879 346.051 145.768C341.381 154.66 336.687 163.128 331.196 167.595C327.135 170.917 322.844 173.949 318.354 176.667C285.823 196.29 251.61 193.098 221.937 184.57C206.962 180.259 193.144 174.579 181.313 169.803C181.261 169.778 181.207 169.756 181.153 169.738C179.016 168.868 176.954 168.044 174.957 167.24C136.98 152.213 97.5376 198.713 93.5938 210.523C92.9612 212.6 92.8922 214.806 93.3936 216.918Z" fill="#FF6741"/>
<path d="M124.098 86.5076C123.587 85.4798 123.423 84.3141 123.631 83.1854C123.84 82.0568 124.409 81.0261 125.254 80.2479L126.255 79.3486L143.647 81.4319L164.637 121.303L200.211 141.976L200.166 142.69L199.75 148.565L199.18 156.184L199.045 158.182C198.729 158.833 198.282 159.412 197.734 159.885C197.185 160.358 196.546 160.713 195.855 160.93C195.163 161.147 194.435 161.221 193.714 161.147C192.993 161.073 192.295 160.853 191.663 160.5L150.623 137.615C149.69 137.093 148.934 136.302 148.456 135.346L124.098 86.5076ZM127.496 81.8715L152.02 130.87L150.338 134.367L152.025 130.87L127.496 81.8715Z" fill="#2E374F"/>
<path d="M192.118 149.14C192.118 149.14 195.281 152.018 200.807 156.164C207.631 161.287 214.8 165.936 222.262 170.077C242.422 181.243 270.093 191.265 296.884 183.661C292.69 167.175 281.98 154.376 274.968 147.401C274.713 147.152 274.467 146.902 274.227 146.672C273.987 146.442 273.807 146.257 273.591 146.068C273.376 145.878 273.091 145.568 272.831 145.343L271.985 144.564L271.214 143.869C270.604 143.335 270.078 142.87 269.653 142.526C268.882 141.891 268.452 141.556 268.452 141.556C267.364 142.556 266.228 143.491 265.043 144.364C252.261 153.856 233.643 156.854 201.763 142.7C200.351 142.076 198.915 141.422 197.444 140.702L194.891 144.739L192.118 149.14Z" fill="#BE654F"/>
<path d="M268.452 141.542C268.452 141.542 290.418 158.242 296.884 183.661C306.513 180.87 315.435 176.06 323.054 169.553C328.247 165.151 332.946 160.2 337.068 154.785C341.211 149.413 344.327 143.325 346.261 136.825C353.303 113.031 342.593 88.2914 315.512 91.119C297.92 92.9624 290.598 112.161 279.402 128.587C276.169 133.278 272.636 137.76 268.452 141.542Z" fill="url(#paint1_linear)"/>
<path d="M197.443 140.697L193.69 132.234C193.216 131.168 192.454 130.254 191.49 129.595C190.526 128.936 189.397 128.558 188.23 128.502L176.028 127.388C175.789 127.361 175.548 127.422 175.35 127.558C175.152 127.694 175.009 127.896 174.949 128.129C174.888 128.361 174.913 128.607 175.019 128.823C175.125 129.038 175.306 129.208 175.527 129.301L183.185 132.704C183.185 132.704 181.223 147.191 192.118 149.14C199.771 148.87 200.156 145.458 197.443 140.697Z" fill="#BE654F"/>
<path d="M287.119 58.2017C287.583 59.0018 288.318 59.6109 289.191 59.9202C289.494 60.0498 289.759 60.2544 289.962 60.5147C294.056 59.1659 292.284 54.4648 291.368 56.5431C290.452 58.6213 287.129 58.1967 287.129 58.1967L287.119 58.2017Z" fill="#AB5141"/>
<path d="M305.377 28.8363C306.082 29.4851 306.75 30.1722 307.379 30.8946L308.925 28.3967C308.988 28.2937 309.016 28.1736 309.006 28.0536C308.996 27.9336 308.948 27.82 308.869 27.729C308.79 27.6379 308.684 27.5742 308.566 27.547C308.449 27.5198 308.326 27.5304 308.215 27.5774L305.377 28.8363Z" fill="#1E0C1C"/>
<path d="M321.297 48.9241L329.84 55.8783H329.88C330.491 55.5785 337.728 51.8117 340.04 41.1107C342.453 29.9501 335.656 17.5805 329.185 16.6963C329.185 16.6963 332.098 17.8353 334.355 22.1617C337.873 28.856 335.911 54.6043 321.297 48.9241Z" fill="#1E0C1C"/>
<path d="M311.067 66.535L312.579 73.3193L318.409 57.4727L311.067 66.535Z" fill="#AB5141"/>
<path d="M221.932 184.56C255.544 194.222 295.002 197.05 331.197 167.575C336.702 163.108 341.382 154.64 346.051 145.748C346.321 142.77 346.383 139.777 346.236 136.791C344.302 143.29 341.185 149.378 337.042 154.75C301.143 201.421 252.962 187.078 222.242 170.058C221.997 174.534 221.867 179.38 221.932 184.56Z" fill="url(#paint2_linear)"/>
<path d="M104.304 163.818C105.882 166.086 107.482 168.291 109.104 170.432L108.153 158.402C108.13 158.123 108.01 157.861 107.812 157.662C107.615 157.463 107.354 157.339 107.075 157.314C106.795 157.288 106.516 157.362 106.285 157.521C106.055 157.681 105.889 157.917 105.815 158.188L104.304 163.818Z" fill="#0E245C"/>
<path d="M93.3936 216.918C93.441 217.204 93.5028 217.487 93.5788 217.767C134.368 188.902 187.168 196.18 238.287 203.224C272.32 207.911 304.466 212.347 331.016 205.692C366.761 196.74 378.742 169.673 382.501 148.491C384.503 137.2 384.432 126.354 383.842 118.246C383.557 118.031 383.271 117.836 382.986 117.642C383.622 125.76 383.742 136.835 381.695 148.376C377.976 169.283 366.14 196.061 330.816 204.903C304.416 211.518 272.35 207.101 238.393 202.405C187.229 195.371 134.398 188.092 93.3936 216.918Z" fill="#EF5A35"/>
<path d="M181.307 169.792C217.171 184.38 229.353 198.338 267.615 199.577C334.629 201.75 346.05 145.768 346.05 145.768C341.38 154.66 336.686 163.128 331.196 167.594C327.134 170.917 322.843 173.948 318.353 176.667C285.822 196.29 251.609 193.098 221.936 184.57C206.957 180.249 193.138 174.583 181.307 169.792Z" fill="#E9512C"/>
<path d="M268.452 141.541C270.735 143.359 272.908 145.31 274.958 147.386C281.965 154.381 292.675 167.175 296.869 183.646C306.498 180.855 315.42 176.045 323.039 169.538C323.039 169.538 307.484 138.124 279.357 128.572C276.169 133.278 272.636 137.76 268.452 141.541Z" fill="url(#paint3_linear)"/>
<path d="M265.043 144.349L274.968 147.387C274.713 147.137 274.467 146.887 274.227 146.657C273.987 146.427 273.807 146.243 273.591 146.053C273.376 145.863 273.091 145.553 272.831 145.328C272.57 145.104 272.255 144.784 271.985 144.549L271.214 143.855C270.599 143.31 270.078 142.855 269.653 142.511C268.882 141.876 268.452 141.542 268.452 141.542C267.354 142.531 266.218 143.467 265.043 144.349Z" fill="#AB5141"/>
<path d="M143.037 82.2065L163.446 121.613L152.331 129.532L127.997 80.6128L143.037 82.2065Z" fill="#ADBFD0"/>
<path d="M18.3315 232.849C18.3542 232.766 18.3602 232.679 18.349 232.593C18.3378 232.507 18.3098 232.425 18.2664 232.35C16.3946 229.063 17.0602 227.064 17.0653 227.044C17.1216 226.882 17.1117 226.704 17.0378 226.549C16.9638 226.394 16.8317 226.274 16.6699 226.215C16.5904 226.185 16.5058 226.172 16.421 226.175C16.3362 226.178 16.2528 226.198 16.1756 226.233C16.0984 226.268 16.029 226.318 15.9713 226.38C15.9135 226.442 15.8686 226.515 15.8391 226.595C15.799 226.694 14.9332 229.127 17.1303 232.994C17.1949 233.106 17.2914 233.197 17.4075 233.254C17.5236 233.312 17.6541 233.334 17.7827 233.317C17.9112 233.3 18.032 233.246 18.1296 233.161C18.2273 233.076 18.2976 232.964 18.3315 232.839V232.849Z" fill="#B01A49"/>
<path d="M15.4379 234.328C15.4607 234.245 15.4666 234.158 15.4555 234.072C15.4443 233.986 15.4162 233.904 15.3728 233.829C13.501 230.541 14.1617 228.543 14.1717 228.523C14.2267 228.361 14.2162 228.183 14.1424 228.029C14.0686 227.874 13.9373 227.754 13.7763 227.694C13.6968 227.664 13.6122 227.651 13.5274 227.654C13.4426 227.657 13.3592 227.677 13.2821 227.712C13.2049 227.747 13.1354 227.797 13.0777 227.859C13.02 227.921 12.975 227.994 12.9455 228.074C12.9055 228.174 12.0346 230.606 14.2367 234.473C14.3237 234.622 14.4657 234.731 14.6322 234.777C14.7987 234.823 14.9765 234.802 15.1276 234.718C15.2025 234.677 15.2684 234.621 15.3216 234.554C15.3749 234.487 15.4144 234.41 15.4379 234.328Z" fill="#B01A49"/>
<path d="M12.2543 236.321C12.278 236.238 12.285 236.151 12.2747 236.065C12.2643 235.98 12.237 235.897 12.1942 235.822C10.3224 232.534 10.983 230.536 10.988 230.516C11.0478 230.354 11.0407 230.176 10.9684 230.019C10.8962 229.863 10.7646 229.741 10.6027 229.682C10.4407 229.622 10.2617 229.629 10.1049 229.701C9.94821 229.773 9.82659 229.905 9.76686 230.066C9.72682 230.166 8.85599 232.599 11.0581 236.466C11.1218 236.579 11.2177 236.67 11.3335 236.728C11.4494 236.786 11.58 236.808 11.7085 236.791C11.837 236.774 11.9575 236.72 12.0548 236.634C12.152 236.549 12.2215 236.436 12.2543 236.311V236.321Z" fill="#B01A49"/>
<defs>
<linearGradient id="paint0_linear" x1="364.068" y1="63.2524" x2="364.068" y2="214.957" gradientUnits="userSpaceOnUse">
<stop stop-color="#5986FB"/>
<stop offset="1" stop-color="#2D4EF5"/>
</linearGradient>
<linearGradient id="paint1_linear" x1="308.409" y1="90.8975" x2="308.409" y2="183.661" gradientUnits="userSpaceOnUse">
<stop stop-color="#3C90FF"/>
<stop offset="1" stop-color="#2336E7"/>
</linearGradient>
<linearGradient id="paint2_linear" x1="346.313" y1="136.791" x2="346.313" y2="191.245" gradientUnits="userSpaceOnUse">
<stop stop-color="#5986FB"/>
<stop offset="1" stop-color="#2D4EF5"/>
</linearGradient>
<linearGradient id="paint3_linear" x1="323.039" y1="128.572" x2="323.039" y2="183.646" gradientUnits="userSpaceOnUse">
<stop stop-color="#255CEE"/>
<stop offset="1" stop-color="#1F3FE6"/>
</linearGradient>
</defs>
</svg>

<svg width="410" height="241" fill="none" xmlns="http://www.w3.org/2000/svg"><path d="M285.168 29.756c9.378 2.897 13.578-3.737 15.164-5.66-3.849-5.606 4.074-13.34-3.979-19.724-9.749-2.528-17.451 6.994-17.967 14.927-.571 8.533 6.782 10.457 6.782 10.457z" fill="#1E0C1C"/><path d="M32.295 223.697c.18 6.795 3.173 7.444 8.508 2.958l60.693-82.131c44.813 41.49 92.469 47.96 133.774 37.164-.166-.34-.316-.68-.476-.999-2.582-5.496-9.834-7.449-11.401-23.68-25.024-7.874-84.951-64.166-122.858-47.96-52.16 22.296-68.24 114.648-68.24 114.648z" fill="#0C1F50"/><path d="M32.295 223.697l-15.73 12.759a2.533 2.533 0 0 0 .582 4.208 2.548 2.548 0 0 0 1.64.183l21.8-3.796a2.799 2.799 0 0 0 1.756-1.223 2.785 2.785 0 0 0 .372-2.104l-1.577-7.139-8.843-2.888z" fill="#1E0C1C"/><path d="M285.172 29.75c.441-4.406 2.753-7.893 4.334-9.821l20.385-7.993 16.691 11.36 3.003 12.989.235 19.604h.04l7.182 7.373c-3.063 11.925-11.036 16.212-23.808 13.024l-.655-2.942-1.502-6.784c-17.797 7.913-18.618-3.103-21.105-6.02a1.895 1.895 0 0 0-.771-.595 3.904 3.904 0 0 1-2.072-1.718c-1.001-1.774-.56-4.402.951-6.8 2.147-3.402-1.211-8.672-2.758-17.645a14.922 14.922 0 0 1-.15-4.031z" fill="#BE654F"/><path d="M289.507 19.929a13.008 13.008 0 0 0 2.502 2.668 36.719 36.719 0 0 0 2.032 1.578c7.112 5.22 11.346 4.661 11.346 4.661a25.996 25.996 0 0 1 2.002 2.059c2.342 2.652 5.92 7.638 6.221 13.488-.065-1.498-.341-10.99 3.298-10.706 2.502.21 4.554 5.34 3.798 9.218a5.13 5.13 0 0 1-2.092 3.457 4.908 4.908 0 0 1-2.257.789c.421.519.909.98 1.452 1.369.263.191.542.358.835.5a2.664 2.664 0 0 0 2.663-.066l8.543 6.955h.04c.611-.3 7.848-4.067 10.16-14.768 2.412-11.16-4.384-23.53-10.855-24.414 0 0-.221-13.899-14.154-16.422-5.846-1.054-13.148.805-18.678 4.112-6.621 3.902-10.705 9.922-6.856 15.522zM19.637 226.245L1.325 236.302a2.537 2.537 0 0 0-.338 4.236c.448.345.998.464 1.564.462h22.281c.368 0 .731-.005 1.07-.145a2.794 2.794 0 0 0 1.723-2.58v-7.314c.115-4.926-2.402-6.674-7.988-4.716z" fill="#3F1F3C"/><path d="M19.638 226.245l7.662 4.716 77.004-67.143a203.493 203.493 0 0 0 4.799 6.614c34.088 45.007 77.074 60.035 117.808 58.451-.09-.365-.165-.729-.245-1.099-3.328-15.947 16.015-30.584 15.87-43.219-.105-8.867-1.952-17.215-1.286-23.88.145-1.448-18.017-2.368-17.857-3.696-22.737-13.074-88.51-48.704-118.504-41.465-36.58 8.837-85.251 110.721-85.251 110.721z" fill="#162F71"/><path d="M150.809 136.801l47.705 30.474s13.408 12.989 23.418 17.276c-.065-5.181.065-10.027.31-14.488a186.538 186.538 0 0 1-21.435-13.879l-3.364-4.116-.58 6.709-46.054-21.976z" fill="#0E245C"/><path d="M224.068 212.841c9.389 1.524 22.266 2.348 39.788 2.059 13.903-.235 25.474-2.343 35.089-5.726a172.353 172.353 0 0 0 28.872-18.729c13.553-10.916 23.638-22.865 28.718-33.971 24.784-54.184-19.519-93.222-19.519-93.222l-23.783 13c-19.709 15.546-26.991 40.675-42.04 57.746-19.308 21.916-47.811 22.98-47.811 22.98a217.573 217.573 0 0 0 .686 55.863z" fill="url(#paint0_linear)"/><path d="M93.394 216.918c.047.286.109.569.185.849a24.333 24.333 0 0 0 1.21 3.532C99.91 233.409 112.062 241 125.23 241h222.584c3.665 0 7.305-.537 10.775-1.711 79.276-27.017 49.352-103.153 25.254-121.043-.285-.215-.571-.41-.856-.604a1.983 1.983 0 0 0-.185-.13c-17.051-11.436-26.846 9.367-36.75 28.256-4.67 8.892-9.364 17.36-14.855 21.827a111.371 111.371 0 0 1-12.842 9.072c-32.531 19.623-66.744 16.431-96.417 7.903-14.975-4.311-28.793-9.991-40.624-14.767a1.375 1.375 0 0 0-.16-.065c-2.137-.87-4.199-1.694-6.196-2.498-37.977-15.027-77.42 31.473-81.363 43.283a12.24 12.24 0 0 0-.2 6.395z" fill="#FF6741"/><path d="M124.098 86.508a5.303 5.303 0 0 1 1.156-6.26l1.001-.9 17.392 2.084 20.99 39.871 35.574 20.673-.045.714-.416 5.875-.57 7.619-.135 1.998a5.32 5.32 0 0 1-7.382 2.318l-41.04-22.885a5.336 5.336 0 0 1-2.167-2.269l-24.358-48.838zm3.398-4.636l24.524 48.998-1.682 3.497 1.687-3.497-24.529-48.999z" fill="#2E374F"/><path d="M192.118 149.14s3.163 2.878 8.689 7.024a186.345 186.345 0 0 0 21.455 13.913c20.16 11.166 47.831 21.188 74.622 13.584-4.194-16.486-14.904-29.285-21.916-36.26-.255-.249-.501-.499-.741-.729-.24-.23-.42-.415-.636-.604-.215-.19-.5-.5-.76-.725l-.846-.779-.771-.695c-.61-.534-1.136-.999-1.561-1.343a63.51 63.51 0 0 0-1.201-.97 40.745 40.745 0 0 1-3.409 2.808c-12.782 9.492-31.4 12.49-63.28-1.664a121.04 121.04 0 0 1-4.319-1.998l-2.553 4.037-2.773 4.401z" fill="#BE654F"/><path d="M268.452 141.542s21.966 16.7 28.432 42.119a70.532 70.532 0 0 0 26.17-14.108 93.998 93.998 0 0 0 14.014-14.768 55.172 55.172 0 0 0 9.193-17.96c7.042-23.794-3.668-48.534-30.749-45.706-17.592 1.843-24.914 21.042-36.11 37.468-3.233 4.691-6.766 9.173-10.95 12.955z" fill="url(#paint1_linear)"/><path d="M197.443 140.697l-3.753-8.463a6.297 6.297 0 0 0-5.46-3.732l-12.202-1.114a1 1 0 0 0-.501 1.913l7.658 3.403s-1.962 14.487 8.933 16.436c7.653-.27 8.038-3.682 5.325-8.443z" fill="#BE654F"/><path d="M287.119 58.202a3.9 3.9 0 0 0 2.072 1.718c.303.13.568.334.771.595 4.094-1.35 2.322-6.05 1.406-3.972-.916 2.078-4.239 1.654-4.239 1.654l-.01.005z" fill="#AB5141"/><path d="M305.377 28.836a25.996 25.996 0 0 1 2.002 2.059l1.546-2.498a.567.567 0 0 0-.359-.85.57.57 0 0 0-.351.03l-2.838 1.26zm15.92 20.088l8.543 6.954h.04c.611-.3 7.848-4.066 10.16-14.767 2.413-11.16-4.384-23.53-10.855-24.415 0 0 2.913 1.14 5.17 5.466 3.518 6.694 1.556 32.442-13.058 26.762z" fill="#1E0C1C"/><path d="M311.067 66.535l1.512 6.784 5.83-15.846-7.342 9.062z" fill="#AB5141"/><path d="M221.932 184.56c33.612 9.662 73.07 12.49 109.265-16.985 5.505-4.467 10.185-12.935 14.854-21.827.27-2.978.332-5.971.185-8.957a55.18 55.18 0 0 1-9.194 17.959c-35.899 46.671-84.08 32.328-114.8 15.308a215.596 215.596 0 0 0-.31 14.502z" fill="url(#paint2_linear)"/><path d="M104.304 163.818a202.013 202.013 0 0 0 4.8 6.614l-.951-12.03a1.187 1.187 0 0 0-1.078-1.088 1.198 1.198 0 0 0-.79.207c-.23.16-.396.396-.47.667l-1.511 5.63z" fill="#0E245C"/><path d="M93.394 216.918c.047.286.109.569.185.849 40.789-28.865 93.589-21.587 144.708-14.543 34.033 4.687 66.179 9.123 92.729 2.468 35.745-8.952 47.726-36.019 51.485-57.201 2.002-11.291 1.931-22.137 1.341-30.245-.285-.215-.571-.41-.856-.604.636 8.118.756 19.193-1.291 30.734-3.719 20.907-15.555 47.685-50.879 56.527-26.4 6.615-58.466 2.198-92.423-2.498-51.164-7.034-103.995-14.313-145 14.513z" fill="#EF5A35"/><path d="M181.307 169.792c35.864 14.588 48.046 28.546 86.308 29.785 67.014 2.173 78.435-53.809 78.435-53.809-4.67 8.892-9.364 17.36-14.854 21.826a111.478 111.478 0 0 1-12.843 9.073c-32.531 19.623-66.744 16.431-96.417 7.903-14.979-4.321-28.798-9.987-40.629-14.778z" fill="#E9512C"/><path d="M268.452 141.541a73.41 73.41 0 0 1 6.506 5.845c7.007 6.995 17.717 19.789 21.911 36.26a70.532 70.532 0 0 0 26.17-14.108s-15.555-31.414-43.682-40.966c-3.188 4.706-6.721 9.188-10.905 12.969z" fill="url(#paint3_linear)"/><path d="M265.043 144.349l9.925 3.038c-.255-.25-.501-.5-.741-.73-.24-.23-.42-.414-.636-.604-.215-.19-.5-.5-.76-.725-.261-.224-.576-.544-.846-.779l-.771-.694a49.39 49.39 0 0 0-1.561-1.344c-.771-.635-1.201-.969-1.201-.969a49.438 49.438 0 0 1-3.409 2.807z" fill="#AB5141"/><path d="M143.037 82.207l20.409 39.406-11.115 7.919-24.334-48.92 15.04 1.595z" fill="#ADBFD0"/><path d="M18.331 232.849a.651.651 0 0 0-.065-.499c-1.871-3.287-1.206-5.286-1.2-5.306a.653.653 0 0 0-.396-.829.64.64 0 0 0-.494.018.64.64 0 0 0-.337.362c-.04.099-.906 2.532 1.291 6.399a.653.653 0 0 0 .653.323.66.66 0 0 0 .548-.478v.01zm-2.893 1.479a.651.651 0 0 0-.065-.499c-1.872-3.288-1.211-5.286-1.201-5.306a.657.657 0 0 0-.89-.811.64.64 0 0 0-.337.362c-.04.1-.91 2.532 1.292 6.399a.662.662 0 0 0 1.085.081.652.652 0 0 0 .116-.226zm-3.184 1.993a.65.65 0 0 0-.06-.499c-1.872-3.288-1.211-5.286-1.206-5.306a.649.649 0 0 0-.883-.815.652.652 0 0 0-.338.365c-.04.1-.911 2.533 1.291 6.4a.65.65 0 0 0 1.196-.155v.01z" fill="#B01A49"/><defs><linearGradient id="paint0_linear" x1="364.068" y1="63.252" x2="364.068" y2="214.957" gradientUnits="userSpaceOnUse"><stop stop-color="#5986FB"/><stop offset="1" stop-color="#2D4EF5"/></linearGradient><linearGradient id="paint1_linear" x1="308.409" y1="90.897" x2="308.409" y2="183.661" gradientUnits="userSpaceOnUse"><stop stop-color="#3C90FF"/><stop offset="1" stop-color="#2336E7"/></linearGradient><linearGradient id="paint2_linear" x1="346.313" y1="136.791" x2="346.313" y2="191.245" gradientUnits="userSpaceOnUse"><stop stop-color="#5986FB"/><stop offset="1" stop-color="#2D4EF5"/></linearGradient><linearGradient id="paint3_linear" x1="323.039" y1="128.572" x2="323.039" y2="183.646" gradientUnits="userSpaceOnUse"><stop stop-color="#255CEE"/><stop offset="1" stop-color="#1F3FE6"/></linearGradient></defs></svg>
